euroheater.ru/images/icons/icon-search.svg

<svg width="20" height="20" viewBox="0 0 20 20" fill="none" xmlns="http://www.w3.org/2000/svg">
<path d="M14.6651 12.8978H13.7383L13.4098 12.5812C14.8176 10.9398 15.545 8.7004 15.1461 6.3203C14.5947 3.06086 11.873 0.457994 8.58819 0.0593566C3.62577 -0.550323 -0.550646 3.62364 0.0593914 8.58315C0.458262 11.866 3.06265 14.5862 6.32401 15.1372C8.7055 15.5359 10.9462 14.8089 12.5886 13.402L12.9054 13.7303V14.6565L17.8913 19.6395C18.3723 20.1202 19.1583 20.1202 19.6393 19.6395C20.1202 19.1588 20.1202 18.3732 19.6393 17.8925L14.6651 12.8978ZM7.62621 12.8978C4.70506 12.8978 2.34703 10.5412 2.34703 7.62174C2.34703 4.70231 4.70506 2.34566 7.62621 2.34566C10.5473 2.34566 12.9054 4.70231 12.9054 7.62174C12.9054 10.5412 10.5473 12.8978 7.62621 12.8978Z" fill="black"/>
</svg>

<svg width="20" height="20" fill="none" xmlns="http://www.w3.org/2000/svg"><path d="M14.665 12.898h-.927l-.328-.317a7.618 7.618 0 001.736-6.26C14.595 3.06 11.873.457 8.588.058 3.626-.55-.55 3.624.06 8.583c.4 3.283 3.004 6.003 6.265 6.554a7.629 7.629 0 006.265-1.735l.316.328v.926l4.986 4.984a1.24 1.24 0 001.748 0 1.24 1.24 0 000-1.748l-4.974-4.994zm-7.039 0a5.27 5.27 0 01-5.279-5.276 5.27 5.27 0 015.28-5.276 5.27 5.27 0 015.278 5.276 5.27 5.27 0 01-5.279 5.276z" fill="#000"/></svg>
